!!!OTL: Liebesprobe (2-83) S. 245
!!!id: P0954
**kern
*clefG2
*k[f#]
*G:
{8g
8a
=1
8b
8b
4g
4g
8b
8b
=2
4.a
8g
8f#
8e}
=3
{4d
=4
4g
4g
4a
8g
8f#
=5
8e
8g
8f#
8e
4d}
=6
{4d
=7
4g
4g
4a
8dd
8cc
=8
4b
4a
4g}
==
*-
!!!minrhy: 8
!!!meters: 4/4 ]  ZZ[3
!!!cut: Liebesprobe (2-83) S. 245
!!!reg: Lothringen
!!!trd: PINCK, Louis: Verklingende Weisen, Bd 2, Metz 1928
!!!rhy1: XX  XXX_X_XX  X_.XXX
!!!rhy2: X_  X_X_X_XX  XXXXX_
!!!key: P0954  08  G 4/4 ]  ZZ[3
!!!mod: HEPTATONIK IONISCH]  AMBITUS[8
!!!kad: -6-51
!!!akz: 312-7_12-6-5_1231_
!!!fot: 'a__b__as"
!!!for: 'a__b__c__
!!!fok: '^d_^__^a_
!! PHRAS[AUFTAKTIG]
!!!fkt: ???
!!!bem1: langes Warten auf Br&auml;utigam
!!!bem2: dann Liebe zu einem andern
!! LOTH VKL
!! PR[17] 2K[12] 2G[12] 3K[0] 3G[0] 4A[12] 4Ü[0] 5A[2] 6K[0] 6G[0]
!! 7K[0] 7G[0] 8A[0] MEHR[0] SI[38] ABS[42] SR[24] SP[14]
!! ST[16] 2k[17] 2g[21] 3k[0] 3g[0] 4d[5] 4ü[0] 5d[2] 6k[0] 6g[0]
!! 7k[0] 7g[0] 8d[0] mehr[0] si[45] dm[-7] sr[38] sp[7]
!! 1F[24] 2F[57] 3F[13] 4F[0] LF[0] 2P[7] 3P[0] 4P[0] TRI[0] DF[4] AB[46]
!! TF[0] U3K[0] U3[0] U4[0] U4Ü[0] U5[12] U6K[0] U6[0] U7K[0] U7[5]
!! N1[28] N2K[0] N2[21] N3K[5] N3[9] N4[5] N4Ü[2] N5[14] N6K[0] N6[0]
!!!n7k: 0] N7[0] O1[0] O2K[0] O2[0] O3K[0] O3[0] HÖ[0
!!!RNB: symbol: &auml;      = a umlaut  (UTF-8: Å„)
